X: 7833
T: Coming Dawn, The
R: jig
M: 6/8
K: Gmajor
A|BDG EDB,|DED DB,D|(3EFG E DB,D|EFG ABc|
{c}BAG EDB,|DED DB,D|(3EFG E DB,D|EGF G2A:|
Bz d2 Bd|edB AGA|BAG EDB,|DED DB,D|
E3 EDB,|GFG A3|Bed BAG|AGF G2 A:|

